X:22
T:Kesh Jig
S:Bernie Waugh
R:Jig
M:6/8
L:1/8
K:G
|:D|\
"G"GAG GAB|"Am"ABA ABd|"C"edd gdd|"D"edB dBA|
"G"GAG GAB|"Am"ABA ABd|"C"edd gdB|"D"AGF "G"G2:|
|:A|\
"Em"~B2B dBd|"C"ege dBA|"Em"~B2B dBG|"Am"~A2A AGA|
"Em"~B2B dBd|"C"ege dBd|"G"gfg "D"aga|"G"bgg g2:|

